T: Aly's
M: 3/4
L: 1/8
K: Fmaj
from | N N3 ~ | ~ to ~ | NN- N2 ~ | B2- B>e- (3edB | A3 e d>B | G3 A G>F | E2 F2 G2 |D2 G2 B2 | c4 B>A | GD- D2 B>^A | A3 D G>A | B2- B>e- (3edB | A3 e d>B | G3 A G>F | E2 F2 G2 |D2 G2 B2 | c3 B A>G | EG- G2 F2 | G3 :|e2- e>f- f>g | d2- d>f- f>g | c3 B A>G | B6 |B3 ^c (3^dcB | e4 d>c | B<d G2 F>G | A3 D G>A |B2- B>e- (3edB | A3 e d>B | G3 A G>F | E2 F2 G2 |D2 G2 B2 | c3 B A>G | EG- G2 F2 | G3 :|A2- A>d- (3dcA | G3 d c>A | F3 G F>E | D2 E2 F2 |C2 F2 A2 | B4 A>G | FC- C2 A>^G | G3 C F>G |A2- A>d- (3dcA | G3 d c>A | F3 G F>E | D2 E2 F2 |C2 F2 A2 | B3 A G>F | DF- F2 E2 | F3 :|d2- d>e- e>f | c2- c>e- e>f | B3 A G>F | A6 |A3 =B (3^cBA | d4 c>B | A<c F2 E>F | G3 C F>G |A2- A>d- (3dcA | G3 d c>A | F3 G F>E | D2 E2 F2 |C2 F2 A2 | B3 A G>F | DF- F2 E2 | F3 :|
